!!!OTL: 332. Berennung von Breslau (1760).
!!!ARE: Europa, Mitteleuropa, Deutschland, Schweinfurt
!!!SCT: E0332
!!!TXL: @@DE
!!!YEM: Copyright 1995, estate of Helmut Schaffrath.
**kern	**text
*ICvox	*
!! Mixed meters:  2/4; 3/4
*M2/4	*
*k[f#]	*
*G:	*
!LO:TX:a:t=Mäßig.	!
!LO:TX:a:t=Mel. aus der Gegend von Schweinfurt.	!
{4dd	Der
=1	=1
12b/	Kö-
12a	-nig
12g	von
12a	Preu-
12g	-ßen
12f#	hat
=2	=2
4g	Leut,
8r}	.
{8a	die
=3	=3
8b	ſein
8dd	dem
8cc	Teu-
8b	-fel
=4	=4
8a	gleich,
8g	kohl-
8f#	-ra-
8e	-ben-
=5	=5
8d	-ſchwarʒ,
8e	kohl-
8d	-ra-
8c	-ben-
=6	=6
2B;}	-ſchwarʒ.
=7	=7
*M3/4	*
{8.a	Blau-
16a	-e
8a	Rö-
8a	-cke
8a	ha-
8b	-bens
=8	=8
2cc	an,
4r}	.
=9	=9
{8.b	We-
16b	-ſten
8b	ſind
8b	kein
8b	Knöpfe
8cc	.
=10	=10
2dd	dran,
4r}	.
=11	=11
{4a	wie
8.a	je-
16a	-der-
8a	-man
8a	wol
=12	=12
(4aqq	.
2b/)	weiß.
4r}	.
=13	=13
{4dd	wie
8.a	je-
16a	-der-
8a	-man
8a	wol
=14	=14
(4aqq	.
2b)}	weiß.
==	==
!!!AGN: historisches Lied, Krieg, Breslau (1760)
!!!ONB: ESAC (Essen Associative Code) Database: ERK1
!!!AMT: irregular
!!!AIN: vox
!!!EED: Helmut Schaffrath
!!!EEV: 1.0
!!!GTL: Historische Lieder
!!!URL-scan: https://rosdok.uni-rostock.de/mcrviewer/recordIdentifier/rosdok_ppn745177662/iview2/phys_0147.iview2?x=-544.0401362767932&y=1177.7702857070835&scale=0.4722427387526479&rotation=0&layout=singlePageLayout
!!!ENC: Anna Maria Matuszewska
!!!EEV: 2024/06/12
*-	*-
